dist/svg/static/time-middle-large.svg

<svg xmlns="http://www.w3.org/2000/svg" width="48" height="48" viewBox="0 0 48 48"><g fill="none" stroke="currentColor" stroke-miterlimit="10"><path d="M22.5 41.5h1c9.9 0 18-8.1 18-18s-8.1-18-18-18H23"/><circle cx="23.5" cy="23.5" r="3"/><path d="M25.6 21.4l5.9-6.9M27 46l-4.5-4.5 4.4-4.4M7 14l2 2M13 40l2-2M14.5 7.5L16 10M6 33l2-1.5M4 23.5h3"/></g></svg>

<?xml version="1.0" encoding="UTF-8" standalone="no"?>
<svg width="48px" height="48px" viewBox="0 0 48 48" version="1.1" xmlns="http://www.w3.org/2000/svg" xmlns:xlink="http://www.w3.org/1999/xlink">
    <!-- Generator: sketchtool 46.2 (44496) - http://www.bohemiancoding.com/sketch -->
    <title>time-middle-large</title>
    <desc>Created with sketchtool.</desc>
    <defs></defs>
    <g id="icons-published" stroke="none" stroke-width="1" fill="none" fill-rule="evenodd">
        <g id="briefing" transform="translate(-2880.000000, -2074.000000)"></g>
        <g id="time-middle-large" stroke="#000000">
            <path d="M22.5,41.5 L23.5,41.5 C33.4,41.5 41.5,33.4 41.5,23.5 C41.5,13.6 33.4,5.5 23.5,5.5 L23,5.5" id="Shape"></path>
            <circle id="Oval" cx="23.5" cy="23.5" r="3"></circle>
            <path d="M25.6,21.4 L31.5,14.5 M27,46 L22.5,41.5 L26.9,37.1 M7,14 L9,16 M13,40 L15,38 M14.5,7.5 L16,10 M6,33 L8,31.5 M4,23.5 L7,23.5" id="Shape"></path>
        </g>
    </g>
</svg>
